src/assets/icons/weeks,simple,13.svg

<svg width="48" height="48" viewBox="0 0 48 48" fill="none" xmlns="http://www.w3.org/2000/svg">
<rect opacity="0.2" x="5" y="5" width="38" height="38" rx="4" fill="black"/>
<path d="M5 13C5 9.22876 5 7.34315 6.17157 6.17157C7.34315 5 9.22876 5 13 5H35C38.7712 5 40.6569 5 41.8284 6.17157C43 7.34315 43 9.22876 43 13V15H5V13Z" fill="black"/>
<path d="M19.2273 20.5455H15.7585L11.4375 23.2812V26.554L15.4347 24.0483H15.5369V38H19.2273V20.5455ZM29.8274 38.2386C33.7479 38.2386 36.5518 36.0824 36.5433 33.0994C36.5518 30.9261 35.1712 29.375 32.6058 29.0511V28.9148C34.5575 28.5653 35.9041 27.1847 35.8956 25.2244C35.9041 22.4716 33.4922 20.3068 29.8786 20.3068C26.299 20.3068 23.6058 22.4034 23.5547 25.4205H27.0916C27.1342 24.0909 28.353 23.2301 29.8615 23.2301C31.353 23.2301 32.3501 24.1335 32.3416 25.446C32.3501 26.8182 31.1825 27.7472 29.5036 27.7472H27.8757V30.4574H29.5036C31.4808 30.4574 32.7166 31.446 32.7081 32.8523C32.7166 34.2415 31.5234 35.196 29.8359 35.196C28.2081 35.196 26.9893 34.3438 26.9212 33.0653H23.2053C23.2649 36.1165 25.9922 38.2386 29.8274 38.2386Z" fill="black"/>
</svg>

<svg xmlns="http://www.w3.org/2000/svg" width="48" height="48" fill="none" viewBox="0 0 48 48">
  <rect width="38" height="38" x="5" y="5" fill="#000" opacity=".2" rx="4"/>
  <path fill="#000" d="M5 13c0-3.771 0-5.657 1.172-6.828C7.343 5 9.229 5 13 5h22c3.771 0 5.657 0 6.828 1.172C43 7.343 43 9.229 43 13v2H5v-2zM19.227 20.546h-3.469l-4.32 2.735v3.273l3.997-2.506h.102V38h3.69V20.546zm10.6 17.693c3.92 0 6.725-2.157 6.716-5.14.009-2.173-1.372-3.724-3.937-4.048v-.136c1.951-.35 3.298-1.73 3.29-3.69.008-2.753-2.404-4.918-6.017-4.918-3.58 0-6.273 2.096-6.324 5.114h3.537c.042-1.33 1.261-2.19 2.77-2.19 1.491 0 2.488.902 2.48 2.215.008 1.372-1.16 2.301-2.838 2.301h-1.628v2.71h1.628c1.977 0 3.213.989 3.204 2.395.009 1.39-1.185 2.344-2.872 2.344-1.628 0-2.847-.852-2.915-2.13h-3.716c.06 3.05 2.787 5.173 6.622 5.173z"/>
</svg>
